X:117
T: Die Schlangenkoechin
N: Q2079H
O: Osteuropa, Tschechoslowakei, Slowakei
N: Slowakische Fassung der Ballade. Verzierung (Nachschlag) in der
N: zweiten Zeile. Zweite, vierte und sechste Zeile = Refrain.
R: Ballade, Mord; Reigen - Tanz, antiphonal
M: 2/4
L: 1/8
K: D
 | AAAA | A2=F2 |
=cc_BG | A2z2 |
=FED2 | GG2A | _BAG2 | =FA2A |
DEFE | D2z2 |
=FED2 | GG2A | _BAG2 | =FA2A |
DEFE | D2z2

@@@ Tune index: 1172
